!!!OTL: "Der sterbende Krieger" LEBET WOHL, IHR LIEBEN ALLE
!!!ARE: Europa, Mitteleuropa, Deutschland, Westfalen
!!!SCT: Z1040
!!!YEM: Copyright 1995, estate of Helmut Schaffrath.
**kern
*ICvox
*Ivox
*M3/4
*k[f#]
*G:
{8g
8a
=1
4b
4b
8cc
8ee
=2
8ee
8dd
4dd}
{8ee
8dd
=3
8dd
8cc
4cc
8dd
8cc
=4
4b
4r}
{8g
8a
=5
4b
4b
8cc
8ee
=6
8ee
8dd
4dd}
{8ee
8dd
=7
8dd
8cc
4cc
8dd
8cc
=8
4b
4r}
{8b
8dd
=9
8dd
8cc
4cc
8a
8ee
=10
8ee
8dd
4dd}
{8b
8dd
=11
8dd
8cc
4cc
8a
8ee
=12
8ee
8dd
4dd}
{8g
8a
=13
4b
4b
8cc
8ee
=14
8ee
8dd
4dd}
{8ee
8dd
=15
4cc
4cc
8dd
8cc
=16
4b
4r}
==
!!!AGN: Romanze, Ballade, Tod (Prinz Ludwig von Preussen)
!!!ONB: ESAC (Essen Associative Code) Database: ZUCCAL
!!!AMT: simple triple
!!!AIN: vox
!!!EED: Helmut Schaffrath
!!!EEV: 1.0
*-
